X:1
T:The Moving Cloud
R:reel
M:4/4
L:1/8
K:G
|:DGBG EGBG|DGBG AGEG|cEAc Bdgb|aged cEGE|
|D2DG E2EG|DGBG AGEG|cEAc BDGB|AGAB GGGz:|
|:d2bd adgd|ddbd adgd|e2c'e beae|eec'e beae|
|d2bd adgd|ddbd adgd|c'bac' bage|dBAd GGGz:|
|:Bd~d2 edBA|Bd~d2 edBd|ce~e2 fe~e2|gefd edBA|
|Bd~d2 edBA|Bd~d2 edBd|cDBD AFGE|FDEF GGGz:|